public/svg/webvitals.svg

<svg width="749" height="555" fill="none" xmlns="http://www.w3.org/2000/svg"><path d="M721.193 0H43.233C27.874 0 15.425 5.734 15.425 12.806v529.388c0 7.074 12.45 12.806 27.806 12.806h677.961c15.36 0 27.807-5.732 27.807-12.806V12.806C749 5.734 736.553 0 721.193 0z" fill="#416848"/><path opacity=".2" d="M721.193 0H43.233C27.874 0 15.425 5.734 15.425 12.806v529.388c0 7.074 12.45 12.806 27.806 12.806h677.961c15.36 0 27.807-5.732 27.807-12.806V12.806C749 5.734 736.553 0 721.193 0z" fill="#fff"/><path d="M705.768 0H27.807C12.45 0 0 5.734 0 12.806v529.388C0 549.268 12.45 555 27.807 555h677.961c15.36 0 27.806-5.732 27.806-12.806V12.806C733.574 5.734 721.128 0 705.768 0z" fill="#416848"/><path opacity=".6" d="M705.768 0H27.807C12.45 0 0 5.734 0 12.806v529.388C0 549.268 12.45 555 27.807 555h677.961c15.36 0 27.806-5.732 27.806-12.806V12.806C733.574 5.734 721.128 0 705.768 0z" fill="#fff"/><path d="M670.085 42.824H65.203c-5.719 0-10.356 3.562-10.356 7.954v456.87c0 4.391 4.637 7.954 10.356 7.954h604.882c5.718 0 10.357-3.563 10.357-7.954V50.778c0-4.392-4.639-7.954-10.357-7.954z" fill="#fff"/><path d="M587.631 116.464H261.91a6.82 6.82 0 00-6.821 6.818v.497a6.819 6.819 0 006.821 6.817h325.721a6.816 6.816 0 006.821-6.817v-.497a6.817 6.817 0 00-6.821-6.818zM413.99 169.222H262.15a7.06 7.06 0 00-7.061 7.057v.017a7.06 7.06 0 007.061 7.058h151.84a7.06 7.06 0 007.061-7.058v-.017a7.06 7.06 0 00-7.061-7.057zM587.631 258.4H261.91a6.82 6.82 0 00-6.821 6.818v.497a6.819 6.819 0 006.821 6.817h325.721a6.816 6.816 0 006.821-6.817v-.497a6.817 6.817 0 00-6.821-6.818zM413.99 311.16H262.15a7.06 7.06 0 00-7.061 7.057v.017a7.06 7.06 0 007.061 7.058h151.84a7.06 7.06 0 007.061-7.058v-.017a7.06 7.06 0 00-7.061-7.057zM587.631 400.338H261.91a6.82 6.82 0 00-6.821 6.818v.497a6.819 6.819 0 006.821 6.817h325.721a6.816 6.816 0 006.821-6.817v-.497a6.817 6.817 0 00-6.821-6.818zM413.99 453.096H262.15a7.06 7.06 0 00-7.061 7.057v.017a7.06 7.06 0 007.061 7.058h151.84a7.06 7.06 0 007.061-7.058v-.017a7.06 7.06 0 00-7.061-7.057z" fill="#868A91"/><path d="M173.95 110.69h-59.8a5.826 5.826 0 00-5.828 5.824v75.182a5.826 5.826 0 005.828 5.824h59.8a5.825 5.825 0 005.827-5.824v-75.182a5.825 5.825 0 00-5.827-5.824z" fill="#416848"/><path d="M173.95 110.69h-59.8a5.826 5.826 0 00-5.828 5.824v75.182a5.826 5.826 0 005.828 5.824h59.8a5.825 5.825 0 005.827-5.824v-75.182a5.825 5.825 0 00-5.827-5.824z" fill="#416848"/><path d="M170.23 115.933h-52.361v70.814h52.361v-70.814z" fill="#416848"/><path opacity=".7" d="M170.23 115.933h-52.361v70.814h52.361v-70.814z" fill="#fff"/><path d="M151.806 107.764a1.718 1.718 0 01-1.612-1.113 6.527 6.527 0 00-6.153-4.341 6.524 6.524 0 00-6.153 4.341 1.724 1.724 0 01-1.611 1.113h-8.09a1.714 1.714 0 00-1.714 1.713v9.01a1.711 1.711 0 001.714 1.713h31.726a1.712 1.712 0 001.713-1.713v-9.01a1.71 1.71 0 00-1.713-1.713h-8.107z" fill="#416848"/><path opacity=".5" d="M151.806 107.764a1.718 1.718 0 01-1.612-1.113 6.527 6.527 0 00-6.153-4.341 6.524 6.524 0 00-6.153 4.341 1.724 1.724 0 01-1.611 1.113h-8.09a1.714 1.714 0 00-1.714 1.713v9.01a1.711 1.711 0 001.714 1.713h31.726a1.712 1.712 0 001.713-1.713v-9.01a1.71 1.71 0 00-1.713-1.713h-8.107z" fill="#000"/><path d="M161.078 130.135h-34.057a1.936 1.936 0 000 3.872h34.057a1.936 1.936 0 100-3.872zM161.078 148.051h-34.057a1.936 1.936 0 000 3.872h34.057a1.936 1.936 0 100-3.872zM145.74 165.986h-18.719a1.936 1.936 0 000 3.871h18.719a1.935 1.935 0 100-3.871zM167.966 279.436l-5.296 5.293a28.917 28.917 0 01-8.091 37.017 28.964 28.964 0 01-37.814-2.734 28.918 28.918 0 01-2.679-37.795 28.95 28.95 0 0117.027-10.922 28.967 28.967 0 0120.022 2.888l5.298-5.293a36.378 36.378 0 00-25.42-5.024 36.356 36.356 0 00-22.31 13.169 36.316 36.316 0 002.704 48.316 36.35 36.35 0 0023.641 10.6 36.364 36.364 0 0024.7-7.826 36.33 36.33 0 0013.209-22.277 36.305 36.305 0 00-4.991-25.412z" fill="#416848"/><path d="M158.661 288.788l-5.656 5.653c.394 1.364.59 2.777.583 4.197a16.325 16.325 0 01-10.071 15.095 16.347 16.347 0 01-17.807-3.529 16.327 16.327 0 01-4.475-8.358 16.32 16.32 0 016.943-16.763 16.335 16.335 0 019.076-2.752 14.344 14.344 0 014.216.582l5.656-5.653a23.057 23.057 0 00-9.872-2.175 23.576 23.576 0 00-13.103 3.974 23.567 23.567 0 00-10.027 24.201 23.584 23.584 0 0018.54 18.515 23.6 23.6 0 0013.628-1.348 23.596 23.596 0 0010.58-8.69 23.554 23.554 0 003.966-13.099 23.122 23.122 0 00-2.177-9.85z" fill="#416848"/><path d="M137.255 309.515A10.885 10.885 0 01127.2 302.8a10.859 10.859 0 012.358-11.853 10.883 10.883 0 0111.861-2.357 10.857 10.857 0 014.884 4.005 10.865 10.865 0 011.834 6.043 10.895 10.895 0 01-10.882 10.877zm0-14.491a3.638 3.638 0 00-3.359 2.245 3.635 3.635 0 00.795 3.961 3.646 3.646 0 001.865.99 3.641 3.641 0 003.728-1.559 3.622 3.622 0 00-.471-4.574 3.66 3.66 0 00-2.558-1.063z" fill="#416848"/><path d="M186.907 259.533a2.722 2.722 0 00-.999-1.239 2.725 2.725 0 00-1.519-.474h-6.343v-6.338a2.691 2.691 0 00-.449-1.521 2.706 2.706 0 00-4.196-.398l-10.883 10.878c-.254.25-.458.548-.595.877-.139.33-.211.683-.211 1.041v7.965h-.103l-26.206 26.397a2.72 2.72 0 00.415 4.178c.445.3.968.461 1.504.464a2.774 2.774 0 001.937-.805l26.277-26.277v-.103h7.968a2.686 2.686 0 001.92-.805l10.885-10.877a2.695 2.695 0 00.598-2.963z" fill="#416848"/><path opacity=".5" d="M186.907 259.533a2.722 2.722 0 00-.999-1.239 2.725 2.725 0 00-1.519-.474h-6.343v-6.338a2.691 2.691 0 00-.449-1.521 2.706 2.706 0 00-4.196-.398l-10.883 10.878c-.254.25-.458.548-.595.877-.139.33-.211.683-.211 1.041v7.965h-.103l-26.206 26.397a2.72 2.72 0 00.415 4.178c.445.3.968.461 1.504.464a2.774 2.774 0 001.937-.805l26.277-26.277v-.103h7.968a2.686 2.686 0 001.92-.805l10.885-10.877a2.695 2.695 0 00.598-2.963z" fill="#000"/><path d="M112.847 426.528h9.117a1.816 1.816 0 011.816 1.816v32.82h-12.767v-32.838c.002-.238.052-.474.144-.693.093-.22.23-.418.399-.586a1.827 1.827 0 011.291-.519zM130.603 410.238h9.119c.481 0 .944.191 1.283.532.342.341.534.802.534 1.283v49.094H128.77v-49.094c0-.24.048-.476.138-.699a1.823 1.823 0 011.695-1.116zM148.36 419.352h9.119c.481 0 .944.19 1.285.531.339.341.531.802.531 1.285v39.963h-12.752v-39.963a1.817 1.817 0 011.817-1.816zM166.117 404.638h9.118a1.813 1.813 0 011.817 1.816v54.694h-12.769v-54.694a1.801 1.801 0 01.538-1.29c.17-.17.372-.303.595-.393.223-.09.461-.137.701-.133z" fill="#416848"/><path d="M181.354 459.348h-74.609a.685.685 0 00-.685.685v2.21c0 .379.306.685.685.685h74.609a.684.684 0 00.685-.685v-2.21a.685.685 0 00-.685-.685z" fill="#416848"/><path opacity=".5" d="M181.354 459.348h-74.609a.685.685 0 00-.685.685v2.21c0 .379.306.685.685.685h74.609a.684.684 0 00.685-.685v-2.21a.685.685 0 00-.685-.685z" fill="#000"/></svg>

<svg width="749" height="555" viewBox="0 0 749 555" fill="none" xmlns="http://www.w3.org/2000/svg">
<path d="M721.193 0H43.2324C27.8752 0 15.4255 5.73365 15.4255 12.8064V542.194C15.4255 549.268 27.8752 555 43.2324 555H721.193C736.553 555 749 549.268 749 542.194V12.8064C749 5.73365 736.553 0 721.193 0Z" fill="#416848"/>
<path opacity="0.2" d="M721.193 0H43.2324C27.8752 0 15.4255 5.73365 15.4255 12.8064V542.194C15.4255 549.268 27.8752 555 43.2324 555H721.193C736.553 555 749 549.268 749 542.194V12.8064C749 5.73365 736.553 0 721.193 0Z" fill="white"/>
<path d="M705.768 0H27.8069C12.4496 0 0 5.73365 0 12.8064V542.194C0 549.268 12.4496 555 27.8069 555H705.768C721.128 555 733.574 549.268 733.574 542.194V12.8064C733.574 5.73365 721.128 0 705.768 0Z" fill="#416848"/>
<path opacity="0.6" d="M705.768 0H27.8069C12.4496 0 0 5.73365 0 12.8064V542.194C0 549.268 12.4496 555 27.8069 555H705.768C721.128 555 733.574 549.268 733.574 542.194V12.8064C733.574 5.73365 721.128 0 705.768 0Z" fill="white"/>
<path d="M670.085 42.8241H65.2034C59.4842 42.8241 54.8467 46.3856 54.8467 50.778V507.648C54.8467 512.039 59.4842 515.602 65.2034 515.602H670.085C675.803 515.602 680.442 512.039 680.442 507.648V50.778C680.442 46.3856 675.803 42.8241 670.085 42.8241Z" fill="white"/>
<path d="M587.631 116.464H261.91C258.143 116.464 255.089 119.517 255.089 123.282V123.779C255.089 127.544 258.143 130.596 261.91 130.596H587.631C591.402 130.596 594.452 127.544 594.452 123.779V123.282C594.452 119.517 591.402 116.464 587.631 116.464Z" fill="#868A91"/>
<path d="M413.99 169.222H262.15C258.251 169.222 255.089 172.382 255.089 176.279V176.296C255.089 180.193 258.251 183.354 262.15 183.354H413.99C417.889 183.354 421.051 180.193 421.051 176.296V176.279C421.051 172.382 417.889 169.222 413.99 169.222Z" fill="#868A91"/>
<path d="M587.631 258.4H261.91C258.143 258.4 255.089 261.453 255.089 265.218V265.715C255.089 269.48 258.143 272.532 261.91 272.532H587.631C591.402 272.532 594.452 269.48 594.452 265.715V265.218C594.452 261.453 591.402 258.4 587.631 258.4Z" fill="#868A91"/>
<path d="M413.99 311.16H262.15C258.251 311.16 255.089 314.32 255.089 318.217V318.234C255.089 322.133 258.251 325.292 262.15 325.292H413.99C417.889 325.292 421.051 322.133 421.051 318.234V318.217C421.051 314.32 417.889 311.16 413.99 311.16Z" fill="#868A91"/>
<path d="M587.631 400.338H261.91C258.143 400.338 255.089 403.391 255.089 407.156V407.653C255.089 411.418 258.143 414.47 261.91 414.47H587.631C591.402 414.47 594.452 411.418 594.452 407.653V407.156C594.452 403.391 591.402 400.338 587.631 400.338Z" fill="#868A91"/>
<path d="M413.99 453.096H262.15C258.251 453.096 255.089 456.255 255.089 460.153V460.17C255.089 464.067 258.251 467.228 262.15 467.228H413.99C417.889 467.228 421.051 464.067 421.051 460.17V460.153C421.051 456.255 417.889 453.096 413.99 453.096Z" fill="#868A91"/>
<path d="M173.95 110.69H114.15C110.931 110.69 108.322 113.297 108.322 116.514V191.696C108.322 194.913 110.931 197.52 114.15 197.52H173.95C177.169 197.52 179.777 194.913 179.777 191.696V116.514C179.777 113.297 177.169 110.69 173.95 110.69Z" fill="#416848"/>
<path d="M173.95 110.69H114.15C110.931 110.69 108.322 113.297 108.322 116.514V191.696C108.322 194.913 110.931 197.52 114.15 197.52H173.95C177.169 197.52 179.777 194.913 179.777 191.696V116.514C179.777 113.297 177.169 110.69 173.95 110.69Z" fill="#416848"/>
<path d="M170.23 115.933H117.869V186.747H170.23V115.933Z" fill="#416848"/>
<path opacity="0.7" d="M170.23 115.933H117.869V186.747H170.23V115.933Z" fill="white"/>
<path d="M151.806 107.764C151.456 107.764 151.113 107.658 150.825 107.459C150.537 107.261 150.318 106.978 150.194 106.651C149.744 105.38 148.909 104.282 147.807 103.504C146.705 102.726 145.39 102.31 144.041 102.31C142.692 102.31 141.378 102.726 140.276 103.504C139.174 104.282 138.341 105.38 137.888 106.651C137.766 106.978 137.545 107.261 137.257 107.459C136.969 107.658 136.627 107.764 136.277 107.764H128.187C127.733 107.764 127.296 107.944 126.975 108.264C126.653 108.586 126.473 109.022 126.473 109.477V118.487C126.473 118.941 126.653 119.376 126.975 119.698C127.296 120.019 127.733 120.2 128.187 120.2H159.913C160.367 120.2 160.804 120.019 161.124 119.698C161.447 119.376 161.626 118.941 161.626 118.487V109.477C161.626 109.022 161.447 108.586 161.124 108.264C160.804 107.944 160.367 107.764 159.913 107.764H151.806Z" fill="#416848"/>
<path opacity="0.5" d="M151.806 107.764C151.456 107.764 151.113 107.658 150.825 107.459C150.537 107.261 150.318 106.978 150.194 106.651C149.744 105.38 148.909 104.282 147.807 103.504C146.705 102.726 145.39 102.31 144.041 102.31C142.692 102.31 141.378 102.726 140.276 103.504C139.174 104.282 138.341 105.38 137.888 106.651C137.766 106.978 137.545 107.261 137.257 107.459C136.969 107.658 136.627 107.764 136.277 107.764H128.187C127.733 107.764 127.296 107.944 126.975 108.264C126.653 108.586 126.473 109.022 126.473 109.477V118.487C126.473 118.941 126.653 119.376 126.975 119.698C127.296 120.019 127.733 120.2 128.187 120.2H159.913C160.367 120.2 160.804 120.019 161.124 119.698C161.447 119.376 161.626 118.941 161.626 118.487V109.477C161.626 109.022 161.447 108.586 161.124 108.264C160.804 107.944 160.367 107.764 159.913 107.764H151.806Z" fill="black"/>
<path d="M161.078 130.135H127.021C125.952 130.135 125.085 131.002 125.085 132.071C125.085 133.14 125.952 134.007 127.021 134.007H161.078C162.149 134.007 163.015 133.14 163.015 132.071C163.015 131.002 162.149 130.135 161.078 130.135Z" fill="#416848"/>
<path d="M161.078 148.051H127.021C125.952 148.051 125.085 148.918 125.085 149.987C125.085 151.056 125.952 151.923 127.021 151.923H161.078C162.149 151.923 163.015 151.056 163.015 149.987C163.015 148.918 162.149 148.051 161.078 148.051Z" fill="#416848"/>
<path d="M145.74 165.986H127.021C125.952 165.986 125.085 166.853 125.085 167.922C125.085 168.991 125.952 169.857 127.021 169.857H145.74C146.809 169.857 147.675 168.991 147.675 167.922C147.675 166.853 146.809 165.986 145.74 165.986Z" fill="#416848"/>
<path d="M167.966 279.436L162.67 284.729C166.002 290.841 167.017 297.948 165.531 304.746C164.045 311.545 160.156 317.58 154.579 321.746C149 325.912 142.106 327.928 135.161 327.426C128.216 326.924 121.684 323.937 116.765 319.012C111.844 314.089 108.866 307.556 108.374 300.615C107.882 293.672 109.909 286.786 114.086 281.217C118.261 275.648 124.307 271.772 131.113 270.295C137.917 268.82 145.027 269.846 151.135 273.183L156.433 267.89C148.864 263.152 139.816 261.364 131.013 262.866C122.21 264.368 114.27 269.055 108.703 276.035C103.137 283.014 100.337 291.798 100.836 300.709C101.334 309.62 105.097 318.036 111.407 324.351C117.716 330.667 126.132 334.441 135.048 334.951C143.964 335.463 152.755 332.678 159.748 327.125C166.739 321.573 171.44 313.644 172.957 304.848C174.474 296.051 172.697 287.007 167.966 279.436Z" fill="#416848"/>
<path d="M158.661 288.788L153.005 294.441C153.399 295.805 153.595 297.218 153.588 298.638C153.591 301.867 152.636 305.026 150.844 307.712C149.051 310.399 146.501 312.494 143.517 313.733C140.533 314.969 137.249 315.297 134.078 314.668C130.909 314.039 127.997 312.487 125.71 310.204C123.424 307.922 121.868 305.014 121.235 301.846C120.604 298.679 120.927 295.395 122.162 292.411C123.398 289.427 125.491 286.877 128.178 285.083C130.864 283.288 134.023 282.331 137.254 282.331C138.682 282.315 140.102 282.51 141.47 282.913L147.126 277.26C144.038 275.814 140.666 275.071 137.254 275.085C132.588 275.085 128.029 276.467 124.151 279.059C120.272 281.649 117.248 285.332 115.464 289.64C113.68 293.946 113.214 298.688 114.124 303.26C115.036 307.833 117.284 312.032 120.584 315.327C123.883 318.623 128.087 320.867 132.664 321.775C137.24 322.683 141.983 322.213 146.292 320.427C150.6 318.64 154.282 315.615 156.872 311.737C159.462 307.859 160.841 303.301 160.838 298.638C160.846 295.234 160.103 291.872 158.661 288.788Z" fill="#416848"/>
<path d="M137.255 309.515C135.103 309.515 132.998 308.878 131.208 307.682C129.417 306.487 128.022 304.789 127.2 302.8C126.375 300.813 126.159 298.626 126.579 296.516C126.999 294.407 128.036 292.468 129.558 290.947C131.08 289.426 133.02 288.389 135.132 287.97C137.242 287.55 139.43 287.766 141.419 288.59C143.408 289.412 145.109 290.806 146.303 292.595C147.5 294.385 148.137 296.487 148.137 298.638C148.134 301.523 146.986 304.286 144.946 306.324C142.905 308.364 140.14 309.512 137.255 309.515ZM137.255 295.024C136.535 295.024 135.833 295.238 135.235 295.637C134.636 296.038 134.17 296.605 133.896 297.269C133.622 297.934 133.55 298.665 133.692 299.371C133.834 300.075 134.182 300.723 134.691 301.23C135.202 301.737 135.85 302.081 136.556 302.22C137.262 302.357 137.994 302.283 138.657 302.006C139.321 301.728 139.886 301.26 140.284 300.661C140.682 300.061 140.891 299.357 140.887 298.638C140.879 297.68 140.493 296.762 139.813 296.087C139.132 295.411 138.213 295.029 137.255 295.024Z" fill="#416848"/>
<path d="M186.907 259.533C186.705 259.029 186.357 258.599 185.908 258.294C185.461 257.989 184.931 257.823 184.389 257.82H178.046V251.482C178.053 250.94 177.895 250.411 177.597 249.961C177.299 249.51 176.874 249.159 176.373 248.953C175.874 248.746 175.324 248.695 174.795 248.803C174.265 248.912 173.78 249.176 173.401 249.563L162.518 260.441C162.264 260.691 162.06 260.989 161.923 261.318C161.784 261.648 161.712 262.001 161.712 262.359V270.324H161.609L135.403 296.721C135.026 297.101 134.769 297.584 134.664 298.112C134.561 298.638 134.614 299.183 134.82 299.679C135.024 300.174 135.372 300.599 135.818 300.899C136.263 301.199 136.786 301.36 137.322 301.363C138.049 301.358 138.745 301.069 139.259 300.558L165.536 274.281V274.178H173.504C173.862 274.178 174.215 274.107 174.546 273.968C174.875 273.831 175.173 273.627 175.424 273.373L186.309 262.496C186.691 262.118 186.954 261.633 187.062 261.105C187.168 260.578 187.115 260.029 186.907 259.533Z" fill="#416848"/>
<path opacity="0.5" d="M186.907 259.533C186.705 259.029 186.357 258.599 185.908 258.294C185.461 257.989 184.931 257.823 184.389 257.82H178.046V251.482C178.053 250.94 177.895 250.411 177.597 249.961C177.299 249.51 176.874 249.159 176.373 248.953C175.874 248.746 175.324 248.695 174.795 248.803C174.265 248.912 173.78 249.176 173.401 249.563L162.518 260.441C162.264 260.691 162.06 260.989 161.923 261.318C161.784 261.648 161.712 262.001 161.712 262.359V270.324H161.609L135.403 296.721C135.026 297.101 134.769 297.584 134.664 298.112C134.561 298.638 134.614 299.183 134.82 299.679C135.024 300.174 135.372 300.599 135.818 300.899C136.263 301.199 136.786 301.36 137.322 301.363C138.049 301.358 138.745 301.069 139.259 300.558L165.536 274.281V274.178H173.504C173.862 274.178 174.215 274.107 174.546 273.968C174.875 273.831 175.173 273.627 175.424 273.373L186.309 262.496C186.691 262.118 186.954 261.633 187.062 261.105C187.168 260.578 187.115 260.029 186.907 259.533Z" fill="black"/>
<path d="M112.847 426.528H121.964C122.447 426.528 122.908 426.72 123.249 427.061C123.59 427.4 123.78 427.862 123.78 428.344V461.164H111.013V428.326C111.015 428.088 111.065 427.852 111.157 427.633C111.25 427.413 111.387 427.215 111.556 427.047C111.726 426.881 111.928 426.749 112.149 426.66C112.371 426.571 112.607 426.526 112.847 426.528Z" fill="#416848"/>
<path d="M130.603 410.238H139.722C140.203 410.238 140.666 410.429 141.005 410.77C141.347 411.111 141.539 411.572 141.539 412.053V461.147H128.77V412.053C128.77 411.813 128.818 411.577 128.908 411.354C129.001 411.133 129.136 410.933 129.308 410.763C129.477 410.596 129.68 410.462 129.902 410.371C130.125 410.28 130.364 410.236 130.603 410.238Z" fill="#416848"/>
<path d="M148.36 419.352H157.479C157.96 419.352 158.423 419.542 158.764 419.883C159.103 420.224 159.295 420.685 159.295 421.168V461.131H146.543V421.168C146.543 420.685 146.735 420.224 147.075 419.883C147.416 419.542 147.879 419.352 148.36 419.352Z" fill="#416848"/>
<path d="M166.117 404.638H175.235C175.717 404.638 176.178 404.828 176.519 405.169C176.86 405.51 177.052 405.972 177.052 406.454V461.148H164.283V406.454C164.283 406.214 164.329 405.976 164.422 405.755C164.514 405.534 164.65 405.332 164.821 405.164C164.991 404.994 165.193 404.861 165.416 404.771C165.639 404.681 165.877 404.634 166.117 404.638Z" fill="#416848"/>
<path d="M181.354 459.348H106.745C106.366 459.348 106.06 459.655 106.06 460.033V462.243C106.06 462.622 106.366 462.928 106.745 462.928H181.354C181.733 462.928 182.039 462.622 182.039 462.243V460.033C182.039 459.655 181.733 459.348 181.354 459.348Z" fill="#416848"/>
<path opacity="0.5" d="M181.354 459.348H106.745C106.366 459.348 106.06 459.655 106.06 460.033V462.243C106.06 462.622 106.366 462.928 106.745 462.928H181.354C181.733 462.928 182.039 462.622 182.039 462.243V460.033C182.039 459.655 181.733 459.348 181.354 459.348Z" fill="black"/>
</svg>
